assets/svg/1F633.svg

<svg xmlns="http://www.w3.org/2000/svg" viewBox="0 0 64 64" enable-background="new 0 0 64 64"><path fill="#fbb041" d="M63.958,31.979c0,17.665-14.314,31.979-31.979,31.979C14.315,63.958,0,49.644,0,31.979     C0,14.315,14.315,0,31.979,0C49.644,0,63.958,14.315,63.958,31.979z"/><g opacity=".987"><path fill="#e79d3c" d="m15.219 41.33c-5.668-12.158-5.921-25.24-.798-36.06-8.682 5.716-14.421 15.54-14.421 26.714 0 17.665 14.315 31.979 31.979 31.979.316 0 .624-.035.936-.048-7.331-6.169-13.509-13.596-17.696-22.582"/></g><path fill="#fff" d="m54.649 29.459c0 7.438-4.02 13.462-8.985 13.462-4.966 0-8.994-6.02-8.994-13.462 0-7.438 4.03-13.461 8.994-13.461 4.965 0 8.985 6.02 8.985 13.461"/><path fill="#25333a" d="m46.9 28.393c0 2.816-1.881 5.096-4.203 5.096s-4.207-2.279-4.207-5.096 1.885-5.1 4.207-5.1 4.203 2.283 4.203 5.1"/><path fill="#fff" d="m27.29 29.459c0 7.438-4.02 13.462-8.982 13.462-4.969 0-8.998-6.02-8.998-13.462 0-7.438 4.03-13.461 8.998-13.461 4.96 0 8.982 6.02 8.982 13.461"/><ellipse fill="#25333a" cx="20.704" cy="28.393" rx="4.207" ry="5.096"/><g opacity=".48"><ellipse fill="#ed307c" cx="15.488" cy="44.556" rx="7.928" ry="6.462"/></g><g opacity=".48"><ellipse fill="#ed307c" cx="48.4" cy="44.556" rx="7.928" ry="6.462"/></g><path fill="#633c17" d="m39.06 52.34c0 1.116-.905 2.02-2.02 2.02h-10.113c-1.118 0-2.02-.906-2.02-2.02l0 0c0-1.115.904-2.02 2.02-2.02h10.112c1.117-.0001 2.023.907 2.023 2.02l0 0"/><g fill="#633d19"><path d="m11.376 14.792c1.928-4.278 5.153-5.953 9.352-6.482 2.251-.288 2.631.292 4.414-.632.733-.375.425-1.086-.357-1.197-7.197-1.043-14.03 2.488-14.888 7.69-.099.57.385 1.712 1.479.621"/><path d="m10.552 16.258l0 0c-.466 0-.895-.202-1.205-.573-.374-.442-.549-1.106-.446-1.687.818-4.96 6.559-8.709 13.349-8.709.893 0 1.793.063 2.678.193.847.119 1.499.688 1.62 1.41.091.537-.111 1.26-.946 1.687-1.068.553-1.775.667-2.567.667l-.908-.016c-.348 0-.754.016-1.27.083-4.389.553-6.946 2.319-8.558 5.894l-.209.304c-.499.494-1.016.747-1.538.747m3.786-6.742c-1.07.711-1.943 1.568-2.552 2.528.724-1 1.569-1.841 2.552-2.528"/><path d="m53.09 14.792c-1.928-4.278-5.153-5.953-9.352-6.482-2.252-.288-2.631.292-4.414-.632-.733-.375-.425-1.086.357-1.197 7.196-1.043 14.03 2.488 14.888 7.69.099.57-.385 1.712-1.479.621"/><path d="m53.917 16.258c-.521 0-1.039-.253-1.536-.747l-.21-.304c-1.611-3.575-4.169-5.34-8.556-5.894-.517-.067-.924-.083-1.271-.083l-.908.016c-.792 0-1.499-.115-2.573-.667-.83-.427-1.031-1.15-.94-1.687.12-.723.772-1.292 1.621-1.41.883-.13 1.783-.193 2.677-.193 6.79 0 12.531 3.749 13.351 8.722.101.569-.075 1.232-.448 1.675-.312.371-.741.572-1.207.572m-3.359-6.426c.664.514 1.26 1.106 1.795 1.777-.482-.652-1.088-1.248-1.795-1.777"/></g></svg>

<?xml version="1.0" encoding="UTF-8" standalone="no"?>
<!-- Generator: Adobe Illustrator 16.0.0, SVG Export Plug-In . SVG Version: 6.00 Build 0)  -->

<svg
   xmlns:dc="http://purl.org/dc/elements/1.1/"
   xmlns:cc="http://creativecommons.org/ns#"
   xmlns:rdf="http://www.w3.org/1999/02/22-rdf-syntax-ns#"
   xmlns:svg="http://www.w3.org/2000/svg"
   xmlns="http://www.w3.org/2000/svg"
   xmlns:sodipodi="http://sodipodi.sourceforge.net/DTD/sodipodi-0.dtd"
   xmlns:inkscape="http://www.inkscape.org/namespaces/inkscape"
   version="1.1"
   id="Layer_1"
   x="0px"
   y="0px"
   width="64px"
   height="64px"
   viewBox="0 0 64 64"
   enable-background="new 0 0 64 64"
   xml:space="preserve"
   inkscape:version="0.48.5 r10040"
   sodipodi:docname="1F633.svg"
   inkscape:export-filename="D:\TESTINGEMOJI\SVGTEST\1F633.png"
   inkscape:export-xdpi="90"
   inkscape:export-ydpi="90"><metadata
   id="metadata7146"><rdf:RDF><cc:Work
       rdf:about=""><dc:format>image/svg+xml</dc:format><dc:type
         rdf:resource="http://purl.org/dc/dcmitype/StillImage" /><dc:title></dc:title></cc:Work></rdf:RDF></metadata><defs
   id="defs7144" /><sodipodi:namedview
   pagecolor="#ffffff"
   bordercolor="#666666"
   borderopacity="1"
   objecttolerance="10"
   gridtolerance="10"
   guidetolerance="10"
   inkscape:pageopacity="0"
   inkscape:pageshadow="2"
   inkscape:window-width="640"
   inkscape:window-height="480"
   id="namedview7142"
   showgrid="false"
   inkscape:zoom="3.6875"
   inkscape:cx="32"
   inkscape:cy="32"
   inkscape:window-x="592"
   inkscape:window-y="229"
   inkscape:window-maximized="0"
   inkscape:current-layer="Layer_1" />
<g
   id="g7066">
	<g
   id="g7068">
		<g
   id="g7070">
			<path
   fill="#FBB041"
   d="M63.958,31.979c0,17.665-14.314,31.979-31.979,31.979C14.315,63.958,0,49.644,0,31.979     C0,14.315,14.315,0,31.979,0C49.644,0,63.958,14.315,63.958,31.979z"
   id="path7072" />
		</g>
	</g>
	<g
   opacity="0.9866"
   id="g7074">
		<g
   id="g7076">
			<g
   id="g7078">
				<path
   fill="#E79D3C"
   d="M15.219,41.328C9.551,29.17,9.298,16.084,14.421,5.265C5.739,10.981,0,20.805,0,31.979      c0,17.665,14.315,31.979,31.979,31.979c0.316,0,0.624-0.035,0.936-0.048C25.584,57.741,19.406,50.314,15.219,41.328z"
   id="path7080" />
			</g>
		</g>
	</g>
	<g
   id="g7082">
		<g
   id="g7084">
			<g
   id="g7086">
				<path
   fill="#FFFFFF"
   d="M54.649,29.459c0,7.438-4.021,13.462-8.985,13.462c-4.966,0-8.994-6.024-8.994-13.462      c0-7.438,4.028-13.461,8.994-13.461C50.629,15.998,54.649,22.021,54.649,29.459z"
   id="path7088" />
			</g>
		</g>
		<g
   id="g7090">
			<g
   id="g7092">
				<path
   fill="#25333A"
   d="M46.9,28.393c0,2.816-1.881,5.096-4.203,5.096s-4.207-2.279-4.207-5.096s1.885-5.1,4.207-5.1      S46.9,25.576,46.9,28.393z"
   id="path7094" />
			</g>
		</g>
		<g
   id="g7096">
			<g
   id="g7098">
				<path
   fill="#FFFFFF"
   d="M27.289,29.459c0,7.438-4.021,13.462-8.982,13.462c-4.969,0-8.998-6.024-8.998-13.462      c0-7.438,4.029-13.461,8.998-13.461C23.267,15.998,27.289,22.021,27.289,29.459z"
   id="path7100" />
			</g>
		</g>
		<g
   id="g7102">
			<g
   id="g7104">
				<ellipse
   fill="#25333A"
   cx="20.704"
   cy="28.393"
   rx="4.207"
   ry="5.096"
   id="ellipse7106" />
			</g>
		</g>
	</g>
	<g
   opacity="0.48"
   id="g7108">
		<g
   id="g7110">
			<ellipse
   fill="#ED307C"
   cx="15.488"
   cy="44.556"
   rx="7.928"
   ry="6.462"
   id="ellipse7112" />
		</g>
	</g>
	<g
   opacity="0.48"
   id="g7114">
		<g
   id="g7116">
			<ellipse
   fill="#ED307C"
   cx="48.401"
   cy="44.556"
   rx="7.928"
   ry="6.462"
   id="ellipse7118" />
		</g>
	</g>
	<path
   fill="#633C17"
   d="M39.058,52.339c0,1.116-0.905,2.022-2.022,2.022H26.923c-1.118,0-2.022-0.906-2.022-2.022l0,0   c0-1.115,0.904-2.022,2.022-2.022h10.112C38.152,50.316,39.058,51.224,39.058,52.339L39.058,52.339z"
   id="path7120" />
	<g
   id="g7122">
		<g
   id="g7124">
			<g
   id="g7126">
				<path
   fill="#633D19"
   d="M11.376,14.792c1.928-4.278,5.153-5.953,9.352-6.482c2.251-0.288,2.631,0.292,4.414-0.632      c0.733-0.375,0.425-1.086-0.357-1.197c-7.197-1.043-14.028,2.488-14.888,7.69C9.798,14.741,10.282,15.883,11.376,14.792z"
   id="path7128" />
				<path
   fill="#633D19"
   d="M10.552,16.258L10.552,16.258c-0.466,0-0.895-0.202-1.205-0.573c-0.374-0.442-0.549-1.106-0.446-1.687      C9.719,9.038,15.46,5.289,22.25,5.289c0.893,0,1.793,0.063,2.678,0.193c0.847,0.119,1.499,0.688,1.62,1.41      c0.091,0.537-0.111,1.26-0.946,1.687c-1.068,0.553-1.775,0.667-2.567,0.667l-0.908-0.016c-0.348,0-0.754,0.016-1.27,0.083      c-4.389,0.553-6.946,2.319-8.558,5.894l-0.209,0.304C11.591,16.005,11.074,16.258,10.552,16.258z M14.338,9.516      c-1.07,0.711-1.943,1.568-2.552,2.528C12.51,11.044,13.355,10.203,14.338,9.516z"
   id="path7130" />
			</g>
		</g>
	</g>
	<g
   id="g7132">
		<g
   id="g7134">
			<g
   id="g7136">
				<path
   fill="#633D19"
   d="M53.094,14.792c-1.928-4.278-5.153-5.953-9.352-6.482c-2.252-0.288-2.631,0.292-4.414-0.632      c-0.733-0.375-0.425-1.086,0.357-1.197c7.196-1.043,14.028,2.488,14.888,7.69C54.672,14.741,54.188,15.883,53.094,14.792z"
   id="path7138" />
				<path
   fill="#633D19"
   d="M53.917,16.258c-0.521,0-1.039-0.253-1.536-0.747l-0.21-0.304c-1.611-3.575-4.169-5.34-8.556-5.894      c-0.517-0.067-0.924-0.083-1.271-0.083l-0.908,0.016c-0.792,0-1.499-0.115-2.573-0.667c-0.83-0.427-1.031-1.15-0.94-1.687      c0.12-0.723,0.772-1.292,1.621-1.41c0.883-0.13,1.783-0.193,2.677-0.193c6.79,0,12.531,3.749,13.351,8.722      c0.101,0.569-0.075,1.232-0.448,1.675C54.812,16.057,54.383,16.258,53.917,16.258z M50.558,9.832      c0.664,0.514,1.26,1.106,1.795,1.777C51.871,10.957,51.265,10.361,50.558,9.832z"
   id="path7140" />
			</g>
		</g>
	</g>
</g>
</svg>
